X:1
T:Title
%%score 1 { 2 | 3 }
L:1/8
Q:1/4=100
M:4/4
K:Bb
V:1 treble nm="Grand Piano, Soprano"
V:2 bass nm="Choir Pad, Bass"
V:3 bass 
V:1
 [DF][EG] [DB]2 [DB]2 [DB][DF] | [EG][EA] [DB]2 [EB]2 [DB]2 | [FB][Fc] [Fd]2 [Fd]2 [Ge][Fd] | %3
w: By~J.~C.~Brewington * * * * *|||
 [Fc][=EB] [Fc]6 | [DF][EG] [DB]2 [DB]2 [DB][DF] | [EG][EA] [DB]2 [EB]2 [DB]2 | %6
w: |||
 [FB][Fc] [Fd]2 [Fd]2 [Fd]2 | [Ec]2 [DB]6 | [Bd][Bd] [Bf]6 | [Bf][Bg] [Bd]2 [Bd]2 [Bd]2 | %10
w: ||||
 [Fd][^Fc] [GB]6 | [FA][GB] [Ac]6 | [Fd][Ec] [DB]2 [DB]2 [DB][DF] | [EG][EA] [DB]2 [EB]2 [DB]2 | %14
w: ||||
 [DB][Ec] [Fd]2 [Fd]2 [Fd]2 | [Ec]2 [DB]6- | [DB]2 z2 z4 |] %17
w: |||
V:2
 B,B, F,2 F,2 F,B, | B,B, F,2 G,2 F,2 | B,A, B,2 B,2 B,B, | CC A,6 | B,B, F,2 F,2 F,B, | %5
 B,B, F,2 G,2 F,2 | B,A, B,2 B,2 B,2 | A,2 B,6 | B,[K:treble]D D2 DD D2 | DE F2 F2 F2 | %10
 FE D2 DD D2 | F=E D4 C2 | B,A, B,2 F,2 F,B, | B,B, F,2 G,2 F,2 | B,B, B,2 B,2 B,2 | A,2 B,6- | %16
 B,2 z2 z4 |] %17
V:3
 B,,B,, B,,2 B,,2 B,,B,, | B,,B,, B,,2 B,,2 B,,2 | D,F, z2 z4 | A,G, F,6 | %4
 B,,B,, B,,2 B,,2 B,,B,, | B,,B,, B,,2 B,,2 B,,2 | D,F, z2 z2 F,2 | F,2 B,,6 | z B, B,2 B,B, B,2 | %9
 B,B, B,2 B,2 B,2 | B,B, G,2 G,G, G,2 | F,C, F,6 | F,F, B,,2 B,,2 B,,B,, | B,,B,, B,,2 B,,2 B,,2 | %14
 B,,B,, F,2 F,2 F,2 | F,2 B,,6- | B,,2 z2 z4 |] %17

